X: 259
T: O'Donnell Aboo
B: O'Neill's 259
N: "Moderate"
N: "Collected by J.O'Neill"
Z: 1997 by John Chambers <jc@trillian.mit.edu>
M: C
L: 1/8
K:D
A/F/ \
| D2DF A2FA | f2dB A2GF | E2EF G2FE | D2DF A2A/G/F/E/ |
| D2DF A2FA | f2dB AGF2 | E2ed cABc | d2de d2z :|
|| f2ec dcBA | d2dB AFD2 | G2G>G FAGF | E2E>F E2 A/G/F/E/ |
| D2DF A2FA | f2dB A2GF | E2ed cABc | d2de d2z ||


